images/themes/sigpacgo/nodpi/ic_star_white_24dp.svg

<svg xmlns="http://www.w3.org/2000/svg" xmlns:xlink="http://www.w3.org/1999/xlink" width="24" height="24" viewBox="0 0 24 24">
<path fill-rule="nonzero" fill="rgb(100%, 100%, 100%)" fill-opacity="1" d="M 12 7.128906 L 12.96875 9.421875 L 13.441406 10.53125 L 14.640625 10.628906 L 17.109375 10.839844 L 15.230469 12.46875 L 14.320312 13.261719 L 14.589844 14.441406 L 15.148438 16.851562 L 13.03125 15.570312 L 12 14.929688 L 10.96875 15.550781 L 8.851562 16.828125 L 9.410156 14.421875 L 9.679688 13.238281 L 8.769531 12.449219 L 6.890625 10.820312 L 9.359375 10.609375 L 10.558594 10.511719 L 11.03125 9.398438 L 12 7.128906 M 12 2 L 9.191406 8.628906 L 2 9.238281 L 7.460938 13.96875 L 5.820312 21 L 12 17.269531 L 18.179688 21 L 16.539062 13.96875 L 22 9.238281 L 14.808594 8.628906 Z M 12 2 "/>
</svg>

<svg xmlns="http://www.w3.org/2000/svg" height="24px" viewBox="0 0 24 24" width="24px" fill="#FFFFFF"><path d="M0 0h24v24H0V0z" fill="none"/><path d="M12 7.13l.97 2.29.47 1.11 1.2.1 2.47.21-1.88 1.63-.91.79.27 1.18.56 2.41-2.12-1.28-1.03-.64-1.03.62-2.12 1.28.56-2.41.27-1.18-.91-.79-1.88-1.63 2.47-.21 1.2-.1.47-1.11.97-2.27M12 2L9.19 8.63 2 9.24l5.46 4.73L5.82 21 12 17.27 18.18 21l-1.64-7.03L22 9.24l-7.19-.61L12 2z"/></svg>
